dist/images/iconos_v2/GCBA-compromisos-icons-07.svg

<svg xmlns="http://www.w3.org/2000/svg" viewBox="0 0 595.3 595.3"><path fill="#5B5B5B" d="M287.8 125.7c-74.9 0-135.6 8.5-135.6 67.8v161c0 32.8 26.6 59.3 59.3 59.3l-25.4 25.4v8.5h203.3v-8.5L364 413.8c32.8 0 59.3-26.6 59.3-59.3v-161c.1-59.3-60.6-67.8-135.5-67.8zm-76.2 254.2c-14 0-25.4-11.4-25.4-25.4 0-14 11.4-25.4 25.4-25.4s25.4 11.4 25.4 25.4c0 14-11.4 25.4-25.4 25.4zm59.3-101.7h-84.7v-84.7h84.7v84.7zm93.2 101.7c-14 0-25.4-11.4-25.4-25.4 0-14 11.4-25.4 25.4-25.4 14 0 25.4 11.4 25.4 25.4 0 14-11.4 25.4-25.4 25.4zm25.4-101.7h-84.7v-84.7h84.7v84.7z"/></svg>

<?xml version="1.0" encoding="utf-8"?>
<!-- Generator: Adobe Illustrator 18.0.0, SVG Export Plug-In . SVG Version: 6.00 Build 0)  -->
<!DOCTYPE svg PUBLIC "-//W3C//DTD SVG 1.1//EN" "http://www.w3.org/Graphics/SVG/1.1/DTD/svg11.dtd">
<svg version="1.1" id="Layer_1" xmlns="http://www.w3.org/2000/svg" xmlns:xlink="http://www.w3.org/1999/xlink" x="0px" y="0px"
	 viewBox="0 0 595.3 595.3" enable-background="new 0 0 595.3 595.3" xml:space="preserve">
<g>
	<path fill="#5B5B5B" d="M287.8,125.7c-74.9,0-135.6,8.5-135.6,67.8v161c0,32.8,26.6,59.3,59.3,59.3l-25.4,25.4v8.5h203.3v-8.5
		l-25.4-25.4c32.8,0,59.3-26.6,59.3-59.3v-161C423.4,134.2,362.7,125.7,287.8,125.7z M211.6,379.9c-14,0-25.4-11.4-25.4-25.4
		c0-14,11.4-25.4,25.4-25.4s25.4,11.4,25.4,25.4C237,368.5,225.6,379.9,211.6,379.9z M270.9,278.2h-84.7v-84.7h84.7V278.2z
		 M364.1,379.9c-14,0-25.4-11.4-25.4-25.4c0-14,11.4-25.4,25.4-25.4c14,0,25.4,11.4,25.4,25.4C389.5,368.5,378.1,379.9,364.1,379.9z
		 M389.5,278.2h-84.7v-84.7h84.7V278.2z"/>
</g>
</svg>
